X:1
T:Brattleboro Waltz and Quick Step
T:Brattleboro Waltz and Quick Step
T:George Hews (1841)
C:George Hews (1841)
L:1/8
Q:1/4=112
M:3/8
K:Bb
V:1 treble 
V:1
"^Allegretto" F/>B/!f! |"Bb" dd"F" e/>c/ |"Bb" BB"F" c/>A/ |"Bb" BB"F"c |"Bb" d2"F" B/>d/ | %5
"Bb" ff"F" g/>e/ |"Bb" dd"F" e/>c/ |"Bb" BB"F" c/>A/ |"Bb" B2 :: F/>d/ |"Bb" f2 g/f/ | %11
"Bb" f<d B/d/ |"F" d<c A/c/ |"Bb" c<B F/>d/ |"Bb" f2 g/f/ |"Bb" f<d B/d/ |"F" d<c A/c/ |"Bb" B2 :: %18
 F/A/ |"F" A<c A/c/ |"F" c<e g/f/ |"Bb" f<d g/f/ |"Bb" f<d F/A/ |"F" A<c A/c/ |"F" c<e g/f/ | %25
"F" e<c A/c/ |"Bb" B2!fine! :: d/e/!p! |"Bb" f3/2 g/f/e/ |"Bb" d<fb |"F7" a<c'c' |"Bb" b<d' d/e/ | %32
"Bb" f>gf/e/ |"Bb" d<ff |"F" e<c A/c/ |"Bb" B2!D.C.! :|[K:F][M:6/8][Q:1/4=112]"^Allegretto" c!f! | %37
"F" a>gf"Bb" g>fd |"F" c2 A F2 C |"F" FCF AFc |"C" [EG]2 [EG] [EG]2 c |"F" a>gf"Bb" g>fd | %42
"F" c2 A F2 A |"C" GAB cde |"F" [Af]3- [Af]2!fine! :: e/f/!p! |"C" g>ec c2 f/g/ |"F" a>fc c2 f/a/ | %48
"C" b>ag"F" a>gf |"C" g>ec c2 e/f/ |"C" g>ec c2 f/g/ |"F" a>fc c2 g/a/ |"C" b>ag"F" a>gf | %53
"C" c3- c2!D.C.! :| %54

